miniprogram/images/nearby-stores/icon-star-red.svg

<svg width="13" height="13" viewBox="0 0 13 13" fill="none" xmlns="http://www.w3.org/2000/svg">
<path d="M5.83002 0.564195C6.11212 0 6.91139 0.0235081 7.16998 0.564195L8.72152 3.69078L12.1537 4.18445C12.7649 4.27848 13 5.03074 12.5533 5.4774L10.085 7.89873L10.6727 11.3074C10.7667 11.9186 10.1085 12.3888 9.56781 12.1067L6.51175 10.4846L3.43219 12.1067C2.8915 12.3888 2.23327 11.9186 2.32731 11.3074L2.91501 7.89873L0.446655 5.4774C0 5.03074 0.235081 4.27848 0.846293 4.18445L4.30199 3.69078L5.83002 0.564195Z" fill="#F87171"/>
</svg>

<svg xmlns="http://www.w3.org/2000/svg" width="13" height="13" fill="none" viewBox="0 0 13 13"><path fill="#f87171" d="M5.83.564c.282-.564 1.081-.54 1.34 0l1.552 3.127 3.432.493c.61.094.846.847.4 1.293L10.084 7.9l.588 3.408c.094.612-.565 1.082-1.105.8l-3.056-1.622-3.08 1.622c-.54.282-1.199-.188-1.105-.8L2.915 7.9.447 5.477C0 5.031.235 4.278.847 4.184l3.455-.493z"/></svg>
